src/24/panel/indicator-keyboard-Hr.svg

<svg viewBox="0 0 24 24" xmlns="http://www.w3.org/2000/svg">
 <path d="m 4 2 c -1.108 0 -2 0.892 -2 2 l 0 16 c 0 1.108 0.892 2 2 2 l 16 0 c 1.108 0 2 -0.892 2 -2 l 0 -16 c 0 -1.108 -0.892 -2 -2 -2 l -16 0 z m 2.031 5.838 1.574 0 0 3.463 3.762 0 0 -3.463 1.576 0 0 8.662 -1.576 0 0 -3.838 -3.762 0 0 3.838 -1.574 0 0 -8.662 z m 11.459 1.986 c 0.1 0 0.216 0.009 0.35 0.025 0.133 0.008 0.267 0.026 0.4 0.051 0.133 0.017 0.262 0.041 0.387 0.074 0.125 0.025 0.226 0.051 0.301 0.076 l -0.264 1.273 c -0.125 -0.042 -0.298 -0.083 -0.523 -0.125 -0.217 -0.05 -0.472 -0.074 -0.764 -0.074 -0.167 0 -0.345 0.017 -0.537 0.051 -0.183 0.033 -0.312 0.061 -0.387 0.086 l 0 5.238 -1.514 0 0 -6.225 c 0.292 -0.108 0.655 -0.209 1.088 -0.301 0.442 -0.1 0.93 -0.15 1.463 -0.15 z" style="fill:#ececec;fill-opacity:1"/>
</svg>

<svg viewBox="0 0 24 24" xmlns="http://www.w3.org/2000/svg"><path d="M4 2c-1.108 0-2 .892-2 2v16c0 1.108.892 2 2 2h16c1.108 0 2-.892 2-2V4c0-1.108-.892-2-2-2H4zm2.031 5.838h1.574v3.463h3.762V7.838h1.576V16.5h-1.576v-3.838H7.605V16.5H6.031V7.838zM17.49 9.824c.1 0 .216.009.35.025.133.008.267.026.4.051.133.017.262.041.387.074.125.025.226.051.301.076l-.264 1.273a4.075 4.075 0 0 0-.523-.125 3.44 3.44 0 0 0-1.301-.023 3.22 3.22 0 0 0-.387.086v5.238h-1.514v-6.225a7.961 7.961 0 0 1 1.088-.301c.442-.1.93-.15 1.463-.15z" fill="#ececec"/></svg>
